brandFactory_export/2.Regular/Portabilidad_2Regular.svg

<?xml version="1.0" encoding="UTF-8"?>
<svg width="24px" height="24px" viewBox="0 0 24 24" version="1.1" xmlns="http://www.w3.org/2000/svg" xmlns:xlink="http://www.w3.org/1999/xlink">
    <title>2.Regular/Portabilidad_2Regular</title>
    <g id="Symbols" stroke="none" stroke-width="1" fill="none" fill-rule="evenodd">
        <g id="2.Regular/Portabilidad_2Regular" fill="#5CB615" fill-rule="nonzero">
            <path d="M10.5714286,1.02352941 C13.9327731,1.02352941 16.5478992,1.90420168 18.3394958,3.63865546 C20.1268261,5.36780866 21.0688479,7.92362389 21.1386671,11.2343838 L21.1428571,11.6319328 L21.1428571,11.6319328 C21.1428571,12.1127823 21.1249625,12.580032 21.0895036,13.0316999 C21.2232833,12.876096 21.3637447,12.7117146 21.502521,12.5495798 C21.8554622,12.1361345 22.2184874,11.7092437 22.5243697,11.4033613 C22.7865546,11.1411765 23.2134454,11.1411765 23.4756303,11.4033613 C23.7378151,11.6655462 23.7378151,12.092437 23.4756303,12.3546218 C23.2067227,12.6235294 22.8605042,13.0302521 22.5277311,13.4235294 C22.1714286,13.8403361 21.805042,14.2739496 21.4957983,14.5798319 C21.102521,14.9663866 20.6823529,15.1613445 20.2655462,15.1613445 C19.8521008,15.1613445 19.4420168,14.9697479 19.0621849,14.589916 C18.7932773,14.3210084 18.2991597,13.7462185 17.4789916,12.794958 L17.0655462,12.3142857 C16.8235294,12.0319328 16.8537815,11.6084034 17.1361345,11.3663866 C17.4184874,11.1243697 17.8420168,11.1546218 18.0840336,11.4369748 L18.497479,11.9176471 C19.0277237,12.5331921 19.4346357,13.0048488 19.7127924,13.3152656 C19.7694351,12.7804385 19.7983193,12.2174882 19.7983193,11.6319328 C19.7983193,8.50588235 18.9915966,6.14285714 17.405042,4.60336134 C15.8722689,3.1210084 13.5731092,2.36806723 10.5714286,2.36806723 C7.5697479,2.36806723 5.27058824,3.1210084 3.73781513,4.60336134 C2.1512605,6.1394958 1.34453782,8.50588235 1.34453782,11.6352941 C1.34453782,14.7647059 2.1512605,17.1277311 3.73781513,18.6672269 C5.27058824,20.1495798 7.5697479,20.902521 10.5714286,20.902521 C12.6386555,20.902521 14.3831933,20.5428571 15.7579832,19.8369748 C16.087395,19.6689076 16.4941176,19.7966387 16.6621849,20.1294118 C16.8302521,20.4588235 16.702521,20.8655462 16.3731092,21.0336134 C14.8033613,21.8369748 12.8537815,22.2436975 10.5714286,22.2436975 C7.21008403,22.2436975 4.59495798,21.3630252 2.80336134,19.6285714 C0.944537816,17.8302521 4.49048798e-10,15.1411765 4.49048798e-10,11.6352941 C4.49048798e-10,8.12941176 0.944537816,5.43697479 2.80336134,3.63865546 C4.59495798,1.90420168 7.21008403,1.02352941 10.5714286,1.02352941 Z M13.0151261,3.73613445 C13.9630252,3.73613445 14.5344538,4.13277311 14.8537815,4.46554622 C15.1462185,4.77478992 15.4957983,5.33277311 15.4957983,6.21344538 L15.4957983,6.21344538 L15.4957983,16.4151261 C15.4957983,17.2957983 15.1462185,17.8504202 14.8537815,18.1630252 C14.5378151,18.4991597 13.9630252,18.8957983 13.0184874,18.8957983 L13.0184874,18.8957983 L7.38823529,18.8957983 C6.44033613,18.8957983 5.86890756,18.4957983 5.55294118,18.1630252 C5.2605042,17.8504202 4.91092437,17.2957983 4.91092437,16.4151261 L4.91092437,16.4151261 L4.91092437,7.72941176 C4.91092437,7.37647059 5.0487395,7.03697479 5.29747899,6.78487395 L5.29747899,6.78487395 L7.90588235,4.13613445 C8.15798319,3.88067227 8.50420168,3.73613445 8.86386555,3.73613445 L8.86386555,3.73613445 Z M13.0151261,5.08067227 L8.86386555,5.08067227 L6.25546219,7.72941176 L6.25546219,16.4184874 C6.25546219,17.107563 6.61512605,17.5546218 7.38823529,17.5546218 L7.38823529,17.5546218 L13.0151261,17.5546218 C13.7882353,17.5546218 14.1478992,17.107563 14.1478992,16.4184874 L14.1478992,16.4184874 L14.1478992,6.21680672 C14.1478992,5.52773109 13.7882353,5.08067227 13.0151261,5.08067227 L13.0151261,5.08067227 Z M12.8,9.63529412 C12.9848739,9.63529412 13.1361345,9.78655462 13.1361345,9.97142857 L13.1361345,15.9042017 C13.1361345,16.0890756 12.9848739,16.2403361 12.8,16.2403361 L7.55630252,16.2403361 C7.37142857,16.2403361 7.22016807,16.0890756 7.22016807,15.9042017 L7.22016807,9.97142857 C7.22016807,9.78655462 7.37142857,9.63529412 7.55630252,9.63529412 L12.8,9.63529412 Z M8.961,14.2765294 L7.892,14.2765294 L7.89243698,15.5680672 L8.961,15.5675294 L8.961,14.2765294 Z M10.709,14.2765294 L9.633,14.2765294 L9.633,15.5675294 L10.709,15.5675294 L10.709,14.2765294 Z M12.463,14.2765294 L11.381,14.2765294 L11.381,15.5675294 L12.4638655,15.5680672 L12.463,14.2765294 Z M12.463,12.3035294 L7.892,12.3035294 L7.892,13.6045294 L12.463,13.6045294 L12.463,12.3035294 Z M8.961,10.3075294 L7.89243698,10.307563 L7.892,11.6315294 L8.961,11.6315294 L8.961,10.3075294 Z M10.709,10.3075294 L9.633,10.3075294 L9.633,11.6315294 L10.709,11.6315294 L10.709,10.3075294 Z M12.4638655,10.307563 L11.381,10.3075294 L11.381,11.6315294 L12.463,11.6315294 L12.4638655,10.307563 Z" id="Portabilidad_2Regular"></path>
        </g>
    </g>
</svg>

<svg width="24" height="24" viewBox="0 0 24 24" xmlns="http://www.w3.org/2000/svg"><path d="M10.571 1.024c3.362 0 5.977.88 7.768 2.615 1.788 1.729 2.73 4.285 2.8 7.595l.004.398c0 .48-.018.948-.053 1.4l.413-.482c.352-.414.715-.84 1.021-1.147a.674.674 0 01.952.952c-.27.269-.615.675-.948 1.069-.357.416-.723.85-1.032 1.156-.393.386-.814.581-1.23.581-.414 0-.824-.191-1.204-.571-.269-.269-.763-.844-1.583-1.795l-.413-.48a.671.671 0 111.018-.878l.413.48c.53.616.938 1.088 1.216 1.398.056-.535.085-1.098.085-1.683 0-3.126-.806-5.49-2.393-7.029-1.533-1.482-3.832-2.235-6.834-2.235-3.001 0-5.3.753-6.833 2.235C2.15 6.14 1.345 8.506 1.345 11.635c0 3.13.806 5.493 2.393 7.032 1.533 1.483 3.832 2.236 6.833 2.236 2.068 0 3.812-.36 5.187-1.066a.672.672 0 01.615 1.197c-1.57.803-3.52 1.21-5.802 1.21-3.36 0-5.976-.881-7.768-2.615C.945 17.83 0 15.14 0 11.635 0 8.13.945 5.437 2.803 3.64c1.792-1.735 4.407-2.615 7.768-2.615zm2.444 2.712c.948 0 1.52.397 1.839.73.292.309.642.867.642 1.747v10.202c0 .88-.35 1.435-.642 1.748-.316.336-.891.733-1.836.733h-5.63c-.948 0-1.52-.4-1.835-.733-.292-.313-.642-.867-.642-1.748V7.73c0-.353.138-.692.386-.944l2.609-2.649c.252-.255.598-.4.958-.4zm0 1.345H8.864L6.255 7.729v8.69c0 .689.36 1.136 1.133 1.136h5.627c.773 0 1.133-.447 1.133-1.137V6.217c0-.69-.36-1.136-1.133-1.136zM12.8 9.635c.185 0 .336.152.336.336v5.933a.337.337 0 01-.336.336H7.556a.337.337 0 01-.336-.336V9.971c0-.184.151-.336.336-.336H12.8zm-3.839 4.642H7.892v1.291h1.069v-1.291zm1.748 0H9.633v1.29h1.076v-1.29zm1.754 0h-1.082v1.29l1.083.001-.001-1.291zm0-1.973H7.892v1.3h4.571v-1.3zm-3.502-1.996H7.892v1.324h1.069v-1.324zm1.748 0H9.633v1.324h1.076v-1.324zm1.755 0H11.38v1.324h1.082v-1.324z" fill="#5CB615" fill-rule="nonzero"/></svg>
